X: 36340
T: Sean Coghlan's
R: slide
M: 12/8
K: Amajor
cd|~e3 ecA|cee ecA|dfd cec|~B3 Bcd|
~e3 ecA|cee ecA|dfd cec|BcB A:|
ce|a2f e2c|efe cBA|dfd cec|~B3 Bce|
a2f e2c|efe cBA|dfd cec|BcB A:|

